!!! OTL: Berkowitz221
!!! Chapter: 1
!!! Section: II
!!! Page: 51
!!! Mode: 
!!! Encoder: DJB
**kern
*staff1
*I"Piano
=1-
*clefG2
*k[b-e-a-d-g-]
*D-:
*M3/8
8r
8r
8a-/
=2
8.dd-/L
16a-/L
16f/
16a-/JJ
=3
8d-/L
8e-/
8f/J
=4
8g-\L
8ee-\
8dd-\J
=5
4cc\
8b-\
=6
8.a-/L
16b-/K
8a-/J
=7
8g-/L
8f/
8e-/J
=8
16f/LL
16g-/JJ
[4a-/
=9
8a-/]
8r
8a-/
=10
!!linebreak:original
8.dd-/L
16a-/L
16f/
16a-/JJ
=11
8d-/L
8e-/
8f/J
=12
8g-\L
8ee-\
8dd-\J
=13
8cc\L
8b-\
8a-\J
=14
8b-\L
8dd-\
8a-\J
=15
8g-/L
8dd-/
8f/J
=16
16e-/LL
16f/
16g-/
16a-/
16b-/
16cc/JJ
=17
8dd-\
4r
==
*-
